X: 1921
T: Va`din Unutma Ey Peri
C: Lâtif Ağa
O: Turkey
F: http://compmusic.upf.edu/node/140
N: yegah--sarki--devrihindi--vadin_unutma--latif_aga
N: makam= yegah
N: form= sarki
N: usul= devrihindi = 7/4
M: 7/4
L: 1/16
K: C _2/4B ^f  
Q: 1/4=108
%%MIDI tuningsystem comma53
d^3/4c de =fe d3/2=c/ Bd c2 B2  | \
w:  ARANAĞME  | 
ag =fe de fe d^3/4c d2 z2  | 
w:   | 
Ae ed dc c=B BA AB AG  | ^3/4FE FG A=B AG FE D2 z2  | 
w:   |   | 
d^3/4c de =fe d3/2=c/ Bd c2 B2  | \
w:  ARANAĞME  | 
ag =fe de fe d^3/4c d2 z2  | 
w:   | 
Ae ed dc c=B BA AB AG  | ^3/4FE FG A=B AG FE D2 z2  | 
w:   |   | 
d6 c2 {d}c{d}B A4  | dc B2 c2 d4 z4  | \
w:  Vâ din  *  *  *  *  u  |  nut *  *  *  ma   | 
d2 e2 ^3/4f2 g2 f2 a2 g2  | ^3/4f4 ef ag fe .d4  | 
w:  ey  *  *  *  *  pe  |  ri    | 
d6 c2 {d}c{d}B A4  | dc B2 c2 d4 z4  | \
w:  Vâ din  *  *  *  *  u  |  nut *  *  *  ma   | 
d2 e2 ^3/4f2 g2 f2 a2 g2  | ^3/4f4 ef ag fe .d4  | 
w:  ey  *  *  *  *  pe  |  ri    | 
e2 d2 c2 BA Bc A2 d2  | d2 c2 B2 A=B AG .^3/4F4  | \
w:  Dil  *  *  mun *  *  *  *  ta  |  zır   | 
E4 D2 E3/2G/ ^3/4FE D4  | 
w:  çok *  tan  *  *  *  be  | 
E2 D2 ^3/4C2 D4 z4  | e2 d2 c2 BA Bc A2 d2  | \
w:  ri    |  Dil  *  *  mun *  *  *  *  ta  | 
d2 c2 B2 A=B AG .^3/4F4  | 
w:  zır   | 
E4 D2 E3/2G/ ^3/4FE D4  | E2 D2 ^3/4C2 D4 z4  | \
w:  çok *  tan  *  *  *  be  |  ri    | 
^3/4f6 f4 f4  | g2 ^3/4f2 e2 d3^3/4c c3=B  | 
w:  Üz dün  ye  |  ter   | 
g4 (3ag^3/4f f3e a2 gf  | ^3/4f4 ef ag fe d2 .f2  | \
w:  bu  *  *  *  kem *  te  |  ri    | 
^3/4f6 f4 f4  | 
w:  Üz dün  ye  | 
g2 ^3/4f2 e2 d3^3/4c c3=B  | g4 (3ag^3/4f f3e a2 gf  | \
w:  ter   |  bu  *  *  *  kem *  te  | 
^3/4f4 ef ag fe d2 z2  | 
w:  ri    | 
e2 d2 c2 BA Bc A2 d2  | d2 c2 B2 A=B AG .^3/4F4  | \
w:  Dil  *  *  mun *  *  *  *  ta  |  zır   | 
E4 D2 E3/2G/ ^3/4FE D4  | 
w:  çok *  tan  *  *  *  be  | 
E2 D2 ^3/4C2 D4 z4  | e2 d2 c2 BA Bc A2 d2  | \
w:  ri    |  Dil  *  *  mun *  *  *  *  ta  | 
d2 c2 B2 A=B AG .^3/4F4  | 
w:  zır   | 
E4 D2 E3/2G/ ^3/4FE D4  | E2 D2 ^3/4C2 D4 z4  | \
w:  çok *  tan  *  *  *  be  |  ri    | 
d^3/4c de =fe d3/2=c/ Bd c2 B2  | 
w:  ARANAĞME  | 
ag =fe de fe d^3/4c d2 z2  | Ae ed dc c=B BA AB AG  | 
w:   |   | 
^3/4FE FG A=B AG FE D2 z2  | d^3/4c de =fe d3/2=c/ Bd c2 B2  | 
w:   |  ARANAĞME  | 
ag =fe de fe d^3/4c d2 z2  | Ae ed dc c=B BA AB AG  | 
w:   |   | 
^3/4FE FG A=B AG FE D2 z2  | d6 c2 {d}c{d}B A4  | \
w:   |  Vâ din  *  *  *  *  u  | 
dc B2 c2 d4 z4  | 
w:  nut *  *  *  ma   | 
d2 e2 ^3/4f2 g2 f2 a2 g2  | ^3/4f4 ef ag fe .d4  | \
w:  ey  *  *  *  *  pe  |  ri    | 
d6 c2 {d}c{d}B A4  | dc B2 c2 d4 z4  | 
w:  Vâ din  *  *  *  *  u  |  nut *  *  *  ma   | 
d2 e2 ^3/4f2 g2 f2 a2 g2  | ^3/4f4 ef ag fe .d4  | \
w:  ey  *  *  *  *  pe  |  ri    | 
e2 d2 c2 BA Bc A2 d2  | 
w:  Dil  *  *  mun *  *  *  *  ta  | 
d2 c2 B2 A=B AG .^3/4F4  | E4 D2 E3/2G/ ^3/4FE D4  | \
w:  zır   |  çok *  tan  *  *  *  be  | 
E2 D2 ^3/4C2 D4 z4  | e2 d2 c2 BA Bc A2 d2  | 
w:  ri    |  Dil  *  *  mun *  *  *  *  ta  | 
d2 c2 B2 A=B AG .^3/4F4  | E4 D2 E3/2G/ ^3/4FE D4  | \
w:  zır   |  çok *  tan  *  *  *  be  | 
E2 D2 ^3/4C2 D4 z4  | |


